X:1
T:Lisnagade
M:6/8
L:1/8
K:D
 A| d2 dd-c B| A2- GF-G A|B-G E D2 C| D3 z2 A| d2 dd-c B| A2 GF-G A|\
B-G E D2 C| D3 z2 E|F-E F D2 F| A2 A F2 A| B2 G E2 E| E3 z2 E|F-D F D2 F|\
 A2 A F2 A|B-c d e2 c| d3- d2||
